X: 26
T: No_124_"My_Little_Son".krn
N: Derived from No_124_"My_Little_Son".krn
%%abc-version 2.0
%%abcx-abcm2ps-target-version 5.9.1 (29 Sep 2008)
%%abc-creator hum2abc beta
%%abcx-conversion-date 2019/03/15 08:36:13
%%humdrum-veritas 3601802704
%%humdrum-veritas-data 499023502
%%linebreak <none>
%%barnumbers 0
L: 1/16
M: 3/4
K: C clef=bass
[K:clef=bass][M:3/4]z4z2 z G, G,2G,A, | 
C7D C3C | 
C4C2 z G, G,2A,A, | 
C7A, C3A, | 
G,2G,2-G,4z4 ||  
[M:2/4]A,8 | 
CCA,2 CCA,2 ||  
[M:3/4]G,2G,2 G,3G, G,G,G,2 ||  
[M:2/4]CCA,2 G,2 z2 ||  
[M:3/4]A,8C3A, ||  
[M:2/4]G,8 | 
G,8 |]  



